svgs/duotone/file-plus.svg

<svg xmlns="http://www.w3.org/2000/svg" viewBox="0 0 384 512"><!--! Font Awesome Pro 6.6.0 by @fontawesome - https://fontawesome.com License - https://fontawesome.com/license (Commercial License) Copyright 2024 Fonticons, Inc. --><defs><style>.fa-secondary{opacity:.4}</style></defs><path class="fa-secondary" d="M0 64C0 28.7 28.7 0 64 0L224 0l0 128c0 17.7 14.3 32 32 32l128 0 0 288c0 35.3-28.7 64-64 64L64 512c-35.3 0-64-28.7-64-64L0 64zM96 336c0 13.3 10.7 24 24 24l48 0 0 48c0 13.3 10.7 24 24 24s24-10.7 24-24l0-48 48 0c13.3 0 24-10.7 24-24s-10.7-24-24-24l-48 0 0-48c0-13.3-10.7-24-24-24s-24 10.7-24 24l0 48-48 0c-13.3 0-24 10.7-24 24z"/><path class="fa-primary" d="M384 160l-128 0c-17.7 0-32-14.3-32-32L224 0 384 160zM192 240c13.3 0 24 10.7 24 24l0 48 48 0c13.3 0 24 10.7 24 24s-10.7 24-24 24l-48 0 0 48c0 13.3-10.7 24-24 24s-24-10.7-24-24l0-48-48 0c-13.3 0-24-10.7-24-24s10.7-24 24-24l48 0 0-48c0-13.3 10.7-24 24-24z"/></svg>

<svg xmlns="http://www.w3.org/2000/svg" viewBox="0 0 384 512"><!--! Font Awesome Pro 6.4.0 by @fontawesome - https://fontawesome.com License - https://fontawesome.com/license (Commercial License) Copyright 2023 Fonticons, Inc. --><defs><style>.fa-secondary{opacity:.4}</style></defs><path class="fa-primary" d="M384 160H256c-17.7 0-32-14.3-32-32V0L384 160zM192 240c13.3 0 24 10.7 24 24v48h48c13.3 0 24 10.7 24 24s-10.7 24-24 24H216v48c0 13.3-10.7 24-24 24s-24-10.7-24-24V360H120c-13.3 0-24-10.7-24-24s10.7-24 24-24h48V264c0-13.3 10.7-24 24-24z"/><path class="fa-secondary" d="M0 64C0 28.7 28.7 0 64 0H224V128c0 17.7 14.3 32 32 32H384V448c0 35.3-28.7 64-64 64H64c-35.3 0-64-28.7-64-64V64zM192 240c-13.3 0-24 10.7-24 24v48H120c-13.3 0-24 10.7-24 24s10.7 24 24 24h48v48c0 13.3 10.7 24 24 24s24-10.7 24-24V360h48c13.3 0 24-10.7 24-24s-10.7-24-24-24H216V264c0-13.3-10.7-24-24-24z"/></svg>
